.icons/Gruvbox-Plus-Dark/apps/16/sweethome3d-furniture-editor.svg

<svg width="16" height="16" version="1.1" xmlns="http://www.w3.org/2000/svg">
  <defs>
    <style type="text/css" id="current-color-scheme">.ColorScheme-Text { color:#ebdbb2; } .ColorScheme-Highlight { color:#458588; }</style>
  </defs>
  <path class="ColorScheme-Text" fill="currentColor" d="m8 1.083c-0.802 0-1.602 0.29-2.184 0.728h-0.728c-1.966 0-3.641 1.602-3.641 3.641 1.02-0.141 2.024 0.343 2.548 1.229 0 0.073 0.441 0.742 0.66 1.251 0.655-0.074 1.744-0.296 3.345-0.296 1.602 0 2.694 0.218 3.276 0.364 0.29-0.51 0.66-1.229 0.66-1.229 0.583-0.947 1.599-1.393 2.617-1.319 0-2.039-1.602-3.641-3.641-3.641h-0.728c-0.582-0.438-1.382-0.728-2.184-0.728zm-6.371 5.119c-0.107 6e-3 -0.214 0.021-0.319 0.046-0.582 0.145-1.106 0.669-1.251 1.252-0.29 1.165 0.523 2.246 1.615 2.32l1.229 3.641h10.19l1.229-3.641c1.092-0.074 1.905-1.155 1.615-2.321-0.145-0.582-0.669-1.106-1.251-1.251-0.874-0.219-1.662 0.16-2.026 0.888-0.073 0.073-0.955 1.728-0.955 1.728s-1.086-0.5-3.709-0.5-3.64 0.501-3.64 0.501-0.956-1.656-0.956-1.73c-0.381-0.636-1.03-0.997-1.775-0.932v-1e-3zm1.047 7.987-0.364 0.728h0.955l0.728-0.728h-1.319zm9.329 0 0.728 0.728h0.956l-0.364-0.728h-1.32z"/>
</svg>

<svg xmlns="http://www.w3.org/2000/svg" style="isolation:isolate" width="16" height="16" viewBox="0 0 16 16">
 <defs>
  <style id="current-color-scheme" type="text/css">
   .ColorScheme-Text { color:#ebdbb2; } .ColorScheme-Highlight { color:#458588; }
  </style>
  <linearGradient id="arrongin" x1="0%" x2="0%" y1="0%" y2="100%">
   <stop offset="0%" style="stop-color:#d79921; stop-opacity:1"/>
   <stop offset="100%" style="stop-color:#b57614; stop-opacity:1"/>
  </linearGradient>
  <linearGradient id="aurora" x1="0%" x2="0%" y1="0%" y2="100%">
   <stop offset="0%" style="stop-color:#83a598; stop-opacity:1"/>
   <stop offset="100%" style="stop-color:#b16286; stop-opacity:1"/>
  </linearGradient>
  <linearGradient id="fitdance" x1="0%" x2="0%" y1="0%" y2="100%">
   <stop offset="0%" style="stop-color:#8ec07c; stop-opacity:1"/>
   <stop offset="100%" style="stop-color:#458588; stop-opacity:1"/>
  </linearGradient>
  <linearGradient id="oomox" x1="0%" x2="0%" y1="0%" y2="100%">
   <stop offset="0%" style="stop-color:#458588; stop-opacity:1"/>
   <stop offset="100%" style="stop-color:#928374; stop-opacity:1"/>
  </linearGradient>
  <linearGradient id="rainblue" x1="0%" x2="0%" y1="0%" y2="100%">
   <stop offset="0%" style="stop-color:#b8bb26; stop-opacity:1"/>
   <stop offset="100%" style="stop-color:#076678; stop-opacity:1"/>
  </linearGradient>
  <linearGradient id="sunrise" x1="0%" x2="0%" y1="0%" y2="100%">
   <stop offset="0%" style="stop-color: #fe8019; stop-opacity:1"/>
   <stop offset="100%" style="stop-color: #fabd2f; stop-opacity:1"/>
  </linearGradient>
  <linearGradient id="telinkrin" x1="0%" x2="0%" y1="0%" y2="100%">
   <stop offset="0%" style="stop-color: #83a598; stop-opacity:1"/>
   <stop offset="100%" style="stop-color: #83a598; stop-opacity:1"/>
  </linearGradient>
  <linearGradient id="60spsycho" x1="0%" x2="0%" y1="0%" y2="100%">
   <stop offset="0%" style="stop-color: #fb4934; stop-opacity:1"/>
   <stop offset="25%" style="stop-color: #fabd2f; stop-opacity:1"/>
   <stop offset="50%" style="stop-color: #fe8019; stop-opacity:1"/>
   <stop offset="100%" style="stop-color: #689d6a; stop-opacity:1"/>
  </linearGradient>
  <linearGradient id="90ssummer" x1="0%" x2="0%" y1="0%" y2="100%">
   <stop offset="0%" style="stop-color: #b16286; stop-opacity:1"/>
   <stop offset="20%" style="stop-color: #8ec07c; stop-opacity:1"/>
   <stop offset="50%" style="stop-color: #fabd2f; stop-opacity:1"/>
   <stop offset="100%" style="stop-color: #458588; stop-opacity:1"/>
  </linearGradient>
  <linearGradient id="cyberneon" x1="0%" x2="0%" y1="0%" y2="100%">
    <stop offset="0" style="stop-color:#83a598; stop-opacity:1"/>
    <stop offset="1" style="stop-color:#b16286; stop-opacity:1"/>
  </linearGradient>
  <clipPath id="_clipPath_euKpNJKm6icidYbMjQXa0fa2y4KqL5Ni">
   <rect width="16" height="16"/>
  </clipPath>
 </defs>
 <g clip-path="url(#_clipPath_euKpNJKm6icidYbMjQXa0fa2y4KqL5Ni)">
  <rect style="fill:currentColor" class="ColorScheme-Text" fill-opacity="0" width="16" height="16"/>
  <path style="fill:currentColor" class="ColorScheme-Text" d="M 8 1.083 C 7.198 1.083 6.398 1.373 5.816 1.811 L 5.088 1.811 C 3.122 1.811 1.447 3.413 1.447 5.452 C 2.467 5.311 3.471 5.795 3.995 6.681 C 3.995 6.754 4.436 7.423 4.655 7.932 C 5.31 7.858 6.399 7.636 8 7.636 C 9.602 7.636 10.694 7.854 11.276 8 C 11.566 7.49 11.936 6.771 11.936 6.771 C 12.519 5.824 13.535 5.378 14.553 5.452 C 14.553 3.413 12.951 1.811 10.912 1.811 L 10.184 1.811 C 9.602 1.373 8.802 1.083 8 1.083 Z M 1.629 6.202 C 1.522 6.208 1.415 6.223 1.31 6.248 C 0.728 6.393 0.204 6.917 0.059 7.5 C -0.231 8.665 0.582 9.746 1.674 9.82 L 2.903 13.461 L 13.097 13.461 L 14.326 9.82 C 15.418 9.746 16.231 8.665 15.941 7.499 C 15.796 6.917 15.272 6.393 14.69 6.248 C 13.816 6.029 13.028 6.408 12.664 7.136 C 12.591 7.209 11.709 8.864 11.709 8.864 C 11.709 8.864 10.623 8.364 8 8.364 C 5.377 8.364 4.36 8.865 4.36 8.865 C 4.36 8.865 3.404 7.209 3.404 7.135 C 3.023 6.499 2.374 6.138 1.629 6.203 L 1.629 6.202 Z M 2.676 14.189 L 2.312 14.917 L 3.267 14.917 L 3.995 14.189 L 2.676 14.189 Z M 12.005 14.189 L 12.733 14.917 L 13.689 14.917 L 13.325 14.189 L 12.005 14.189 Z"/>
 </g>
</svg>
